svg/color/hkc.svg

<?xml version="1.0" encoding="UTF-8" ?>
<!DOCTYPE svg PUBLIC "-//W3C//DTD SVG 1.1//EN" "http://www.w3.org/Graphics/SVG/1.1/DTD/svg11.dtd">
<svg width="250pt" height="250pt" viewBox="0 0 250 250" version="1.1" xmlns="http://www.w3.org/2000/svg">
<g id="#fffdfcff">
<path fill="#fffdfc" opacity="1.00" d=" M 0.00 0.00 L 116.43 0.00 C 69.22 4.86 25.92 36.94 9.78 81.87 C -8.56 127.94 4.63 184.25 41.75 217.22 C 61.31 235.70 87.17 246.26 113.58 250.00 L 0.00 250.00 L 0.00 0.00 Z" />
<path fill="#fffdfc" opacity="1.00" d=" M 138.56 0.00 L 250.00 0.00 L 250.00 250.00 L 141.42 250.00 C 144.88 248.80 148.56 248.71 152.14 248.14 C 198.42 240.84 237.56 203.52 248.10 158.09 C 220.89 158.04 193.65 157.70 166.45 158.27 C 151.41 177.54 120.91 180.56 101.14 166.94 C 75.41 152.14 70.65 112.31 91.69 91.70 C 110.50 68.58 148.75 70.23 167.13 92.92 C 193.95 92.86 220.81 93.51 247.61 92.56 C 241.76 66.69 226.50 42.78 205.64 26.37 C 186.63 10.86 162.71 2.82 138.56 0.00 M 182.26 107.16 C 175.78 116.07 182.12 130.20 180.18 140.71 C 183.70 146.87 190.12 138.65 187.03 134.01 C 183.25 124.04 198.22 133.18 198.06 125.00 C 198.32 118.34 186.41 125.69 187.02 119.01 C 186.70 115.31 188.79 105.95 182.26 107.16 M 202.24 107.13 C 199.61 109.57 197.73 113.22 199.10 116.97 C 200.97 124.92 197.24 133.31 199.94 141.04 C 201.15 145.00 207.50 142.72 207.00 139.02 C 207.02 129.11 207.19 119.20 206.82 109.29 C 205.73 107.81 204.23 106.39 202.24 107.13 M 213.26 107.16 C 206.83 114.89 213.21 127.69 211.01 137.00 C 207.36 142.85 217.25 145.18 217.94 139.94 C 218.10 129.73 218.15 119.50 217.82 109.29 C 216.74 107.84 215.23 106.35 213.26 107.16 M 233.27 107.19 C 228.95 111.90 223.71 115.87 220.04 121.10 C 217.99 130.30 227.73 135.18 232.70 141.27 C 234.64 145.18 241.36 142.23 239.77 138.31 C 235.35 133.67 230.51 129.34 226.93 123.99 C 229.38 120.24 233.29 117.63 236.26 114.30 C 240.19 112.33 237.23 105.68 233.27 107.19 Z" />
</g>
<g id="#fc794bff">
<path fill="#fc794b" opacity="1.00" d=" M 116.43 0.00 L 138.56 0.00 C 162.71 2.82 186.63 10.86 205.64 26.37 C 226.50 42.78 241.76 66.69 247.61 92.56 C 220.81 93.51 193.95 92.86 167.13 92.92 C 148.75 70.23 110.50 68.58 91.69 91.70 C 70.65 112.31 75.41 152.14 101.14 166.94 C 120.91 180.56 151.41 177.54 166.45 158.27 C 193.65 157.70 220.89 158.04 248.10 158.09 C 237.56 203.52 198.42 240.84 152.14 248.14 C 148.56 248.71 144.88 248.80 141.42 250.00 L 113.58 250.00 C 87.17 246.26 61.31 235.70 41.75 217.22 C 4.63 184.25 -8.56 127.94 9.78 81.87 C 25.92 36.94 69.22 4.86 116.43 0.00 Z" />
<path fill="#fc794b" opacity="1.00" d=" M 182.26 107.16 C 188.79 105.95 186.70 115.31 187.02 119.01 C 186.41 125.69 198.32 118.34 198.06 125.00 C 198.22 133.18 183.25 124.04 187.03 134.01 C 190.12 138.65 183.70 146.87 180.18 140.71 C 182.12 130.20 175.78 116.07 182.26 107.16 Z" />
<path fill="#fc794b" opacity="1.00" d=" M 202.24 107.13 C 204.23 106.39 205.73 107.81 206.82 109.29 C 207.19 119.20 207.02 129.11 207.00 139.02 C 207.50 142.72 201.15 145.00 199.94 141.04 C 197.24 133.31 200.97 124.92 199.10 116.97 C 197.73 113.22 199.61 109.57 202.24 107.13 Z" />
<path fill="#fc794b" opacity="1.00" d=" M 213.26 107.16 C 215.23 106.35 216.74 107.84 217.82 109.29 C 218.15 119.50 218.10 129.73 217.94 139.94 C 217.25 145.18 207.36 142.85 211.01 137.00 C 213.21 127.69 206.83 114.89 213.26 107.16 Z" />
<path fill="#fc794b" opacity="1.00" d=" M 233.27 107.19 C 237.23 105.68 240.19 112.33 236.26 114.30 C 233.29 117.63 229.38 120.24 226.93 123.99 C 230.51 129.34 235.35 133.67 239.77 138.31 C 241.36 142.23 234.64 145.18 232.70 141.27 C 227.73 135.18 217.99 130.30 220.04 121.10 C 223.71 115.87 228.95 111.90 233.27 107.19 Z" />
</g>
</svg>

<?xml version="1.0" encoding="utf-8"?>
<!-- Generator: Adobe Illustrator 26.0.3, SVG Export Plug-In . SVG Version: 6.00 Build 0)  -->
<svg version="1.1" id="Layer_1" xmlns="http://www.w3.org/2000/svg" xmlns:xlink="http://www.w3.org/1999/xlink" x="0px" y="0px"
	 viewBox="0 0 250 250" style="enable-background:new 0 0 250 250;" xml:space="preserve">
<style type="text/css">
	.st0{fill:#FC794B;}
</style>
<g id="_x23_fc794bff">
	<path class="st0" d="M116.4,0h22.1c24.2,2.8,48.1,10.9,67.1,26.4c20.9,16.4,36.1,40.3,42,66.2c-26.8,1-53.7,0.3-80.5,0.4
		c-18.4-22.7-56.6-24.3-75.4-1.2c-21,20.6-16.3,60.4,9.4,75.2c19.8,13.6,50.3,10.6,65.3-8.7c27.2-0.6,54.4-0.2,81.7-0.2
		c-10.5,45.4-49.7,82.8-96,90.1c-3.6,0.6-7.3,0.7-10.7,1.9h-27.8c-26.4-3.7-52.3-14.3-71.8-32.8c-37.1-33-50.3-89.3-32-135.4
		C25.9,36.9,69.2,4.9,116.4,0z"/>
	<path class="st0" d="M182.3,107.2c6.5-1.2,4.4,8.1,4.8,11.8c-0.6,6.7,11.3-0.7,11,6c0.2,8.2-14.8-1-11,9c3.1,4.6-3.3,12.9-6.9,6.7
		C182.1,130.2,175.8,116.1,182.3,107.2z"/>
	<path class="st0" d="M202.2,107.1c2-0.7,3.5,0.7,4.6,2.2c0.4,9.9,0.2,19.8,0.2,29.7c0.5,3.7-5.9,6-7.1,2c-2.7-7.7,1-16.1-0.8-24.1
		C197.7,113.2,199.6,109.6,202.2,107.1z"/>
	<path class="st0" d="M213.3,107.2c2-0.8,3.5,0.7,4.6,2.1c0.3,10.2,0.3,20.4,0.1,30.7c-0.7,5.2-10.6,2.9-6.9-2.9
		C213.2,127.7,206.8,114.9,213.3,107.2z"/>
	<path class="st0" d="M233.3,107.2c4-1.5,6.9,5.1,3,7.1c-3,3.3-6.9,5.9-9.3,9.7c3.6,5.3,8.4,9.7,12.8,14.3c1.6,3.9-5.1,6.9-7.1,3
		c-5-6.1-14.7-11-12.7-20.2C223.7,115.9,228.9,111.9,233.3,107.2z"/>
</g>
</svg>
